X:2281
T:Bugle Waltz No.3. CJF.106
M:3/8
L:1/16
Q:60
S: C.J.Fox MS, 1829/33, Beverley,E.Yorks.
R:Waltz
O:England
A:East Yorkshire
B:Kidson Coll.Mitchell Lib.M1805
N:See note on Bugle Waltz No. 1. CJF.056. On the stave after the tune is
N:"
N:J
N:Fox".
Z:P J Headford 2000
K:D
A2|d4f2|a2afd2|c2cea2|bagfge|d4f2|\
a2afd2|ceagec|d4:|:!cd|e3c'ba|a^g d'2b2|
a^gaecA|cBB2 cd|e3c'ba|^gbd'bge|aefdcB|A4:|:!\
"Bugle Solo"A2|d4e2|d2c2c2|e4f2|e2d2d2|dcdefg|a2f2d2|
A3Bc2|d4:|:!a2|ag e2e2|e3gce|df a2a2|ad'fadf|ag e2e2|e3gce|dfafge|d4h:||


